X: 18262
T: Humours Of Max, The
R: reel
M: 4/4
K: Dmajor
|:A3B AGFD|(3EFG FD EDB,E|DFAB AFDF|E3D E2dB|
A3B AGFD|(3EFG FD EDB,E|DFAB AFDF|1 E3F D2dB:|2 E3F D2Bd||
|:e3d e2ge|fedf edBA|B3d e2ge|fedB A2(3Bcd|
e2ed e2ge|fedf edBA|dfab afdf|e2eg fedB:|

